!!!CDT:
!!!PTL: Il primo libro de madrigali a cinque voci
!!!PPP: Rome
!!!PPR: Luigi Zanetti
!!!PDT: 1605
!!!RISM: C 2212
!!!rime:
!!!AGN: Madrigal
!!!SCT: Tsg12096e
!!!SCA: Tsg12096e
!!!voices:
!!!COM: Cifra, Antonio
!!!OTL: Giunto a la tomba ove al suo spirto vivo
**kern	**text	**kern	**text	**kern	**text	**kern	**text	**kern	**text
*part5	*part5	*part4	*part4	*part3	*part3	*part2	*part2	*part1	*part1
*staff5	*staff5	*staff4	*staff4	*staff3	*staff3	*staff2	*staff2	*staff1	*staff1
*I"Basso	*	*I"Tenore	*	*I"Alto	*	*I"Quinto	*	*I"Canto	*
*I'B	*	*I'T	*	*I'A	*	*I'V	*	*I'C	*
*oclefF4	*	*oclefC4	*	*oclefC3	*	*oclefC1	*	*oclefC1	*
*clefF4	*	*clefGv2	*	*clefGv2	*	*clefG2	*	*clefG2	*
*k[b-]	*	*k[b-]	*	*k[b-]	*	*k[b-]	*	*k[b-]	*
*F:	*	*F:	*	*F:	*	*F:	*	*F:	*
*omet(C)	*	*omet(C)	*	*omet(C)	*	*omet(C)	*	*omet(C)	*
*M4/2	*	*M4/2	*	*M4/2	*	*M4/2	*	*M4/2	*
=1	=1	=1	=1	=1	=1	=1	=1	=1	=1
!!LO:TX:a:t=[Canzone. Prima parte.]
0r	.	0r	.	1.f	Giun-	1r	.	1r	.
.	.	.	.	.	.	[1a	Giun-	[1cc	Giun-
.	.	.	.	4e	-t'a	.	.	.	.
.	.	.	.	4d	la	.	.	.	.
=2	=2	=2	=2	=2	=2	=2	=2	=2	=2
0r	.	0r	.	1c	tom-	2a]	.	2cc]	.
.	.	.	.	.	.	4g	-t'a	4b-y	-t'a
.	.	.	.	.	.	4f	la	4a	la
.	.	.	.	1c	-ba	2e	tom-	2g	tom-
.	.	.	.	.	.	2e	-b'o-	2g	-b'o-
=3	=3	=3	=3	=3	=3	=3	=3	=3	=3
0r	.	0r	.	2r	.	4f	-v'al	4a	-v'al
.	.	.	.	.	.	4g	suo	4b-y	suo
.	.	.	.	2A	o-	8aL	spir-	8ccL	spir-
.	.	.	.	.	.	8g	.	8b-y	.
.	.	.	.	.	.	8f	.	8a	.
.	.	.	.	.	.	8eJ	.	8gJ	.
.	.	.	.	4B-y	-v'al	4d	.	2f	.
.	.	.	.	4c	suo	4e	.	.	.
.	.	.	.	4d	spir-	4f	.	2b-y	-to
.	.	.	.	4B-y	-to	4g	-to	.	.
=4	=4	=4	=4	=4	=4	=4	=4	=4	=4
0r	.	0r	.	4c	vi-	4e	vi-	4a	vi-
.	.	.	.	8B-yL	.	2f	.	8gL	.
.	.	.	.	8AJ	.	.	.	8fJ	.
.	.	.	.	4B-y	.	.	.	2g	.
.	.	.	.	4c	.	4e	.	.	.
.	.	.	.	1F	-vo	1f	-vo	1a	-vo
=5	=5	=5	=5	=5	=5	=5	=5	=5	=5
0r	.	0r	.	4f	Do-	4a	Do-	1r	.
.	.	.	.	4f	-lo-	4a	-lo-	.	.
.	.	.	.	1f	-ro-	1a	-ro-	.	.
.	.	.	.	.	.	.	.	4cc	Do-
.	.	.	.	.	.	.	.	4cc	-lo-
.	.	.	.	4e-X	-sa	4g	-sa	[2cc	-ro-
.	.	.	.	4e-i	pri-	4g	pri-	.	.
=6	=6	=6	=6	=6	=6	=6	=6	=6	=6
0r	.	0r	.	1.d	-gio-	2f#X	-gion	2cc]	.
.	.	.	.	.	.	2.g	.	4b-y	-sa
.	.	.	.	.	.	.	.	4b-y	pri-
.	.	.	.	.	.	.	.	2.a	-gio-
.	.	.	.	.	.	8f#XL	.	.	.
.	.	.	.	.	.	8eJ	.	.	.
.	.	.	.	2d	-n'il	2f#X	.	.	.
.	.	.	.	.	.	.	.	4a	-n'il
=7	=7	=7	=7	=7	=7	=7	=7	=7	=7
0r	.	0r	.	8gL	Ciel	4r	.	4.b-y	Ciel
.	.	.	.	8f	.	.	.	.	.
.	.	.	.	8g	.	4g	il	.	.
.	.	.	.	8aJ	.	.	.	8a	.
.	.	.	.	4b-y	.	8ddL	Ciel	8gL	.
.	.	.	.	.	.	8cc	.	8a	.
.	.	.	.	4g	pre-	8dd	.	8b-y	.
.	.	.	.	.	.	8eeJ	.	8gJ	.
.	.	.	.	1f	-scris-	4ffnXi	.	4a	pre-
.	.	.	.	.	.	4dd	pre-	2b-y	-scris-
.	.	.	.	.	.	2cc	-scris-	.	.
.	.	.	.	.	.	.	.	4a	.
=8	=8	=8	=8	=8	=8	=8	=8	=8	=8
0r	.	0r	.	1B-y	-se,	1dd	-se,	1b-y	-se,
.	.	.	.	4B-y	Di	4f	Di	4dd	Di
.	.	.	.	4B-y	co-	4f	co-	4d	co-
.	.	.	.	[2B-y	-lor,	[2f	-lor,	[2d	-lor,
=9	=9	=9	=9	=9	=9	=9	=9	=9	=9
0r	.	0r	.	2B-]	.	2f]	.	2d]	.
.	.	.	.	4B-y	di	4f	di	4d	di
.	.	.	.	4A	ca-	4a	ca-	4f	ca-
.	.	.	.	1c	-lor,	1g	-lor,	1e	-lor,
=10	=10	=10	=10	=10	=10	=10	=10	=10	=10
0r	.	0r	.	4c	di	4g	di	4e	di
.	.	.	.	2c	mo-	2g	mo-	2e	mo-
.	.	.	.	4BnX	-to	4g	-to	4g	-to
.	.	.	.	1d	pri-	1a	pri-	1f#X	pri-
=11	=11	=11	=11	=11	=11	=11	=11	=11	=11
0r	.	0r	.	1d	-vo,	1a	-vo,	1f#i	-vo,
.	.	.	.	4r	.	4r	.	4r	.
.	.	.	.	4d	Già	4f#X	Già	4a	Già
.	.	.	.	4d	mar-	4f#i	mar-	4a	mar-
.	.	.	.	4g	-m'in	4g	-m'in	4bnX	-m'in
=12	=12	=12	=12	=12	=12	=12	=12	=12	=12
0r	.	0r	.	2.f	vi-	2.a	vi-	2.cc	vi-
.	.	.	.	4e	-st'al	4g	-st'al	4cc	-st'al
.	.	.	.	4d	mar-	4fnXi	mar-	4b-i	mar-
.	.	.	.	4c	-m'al	4e	-m'al	4a	-m'al
.	.	.	.	[2B-y	fin	[2d	fin	2g	fin
=13	=13	=13	=13	=13	=13	=13	=13	=13	=13
1r	.	1r	.	4B-]	.	4d]	.	2f	s'af-
.	.	.	.	4A	s'af-	4f	s'af-	.	.
.	.	.	.	2c	-fis-	2e	-fis-	2g	-fis-
2F	Al	4r	.	2.c	-se.	1f	-se.	4.a	-se.
.	.	4A	Al	.	.	.	.	.	.
.	.	.	.	.	.	.	.	8b-y	.
4F	fin,	4A	fin,	.	.	.	.	[2cc	.
4F	sgor-	4A	sgor-	4c	Al	.	.	.	.
=14	=14	=14	=14	=14	=14	=14	=14	=14	=14
8FL	-gan-	8AL	-gan-	1F	fin,	0r	.	2cc]	.
8G	.	8B-y	.	.	.	.	.	.	.
8A	.	8c	.	.	.	.	.	.	.
8GJ	.	8B-yJ	.	.	.	.	.	.	.
8AL	.	8cL	.	.	.	.	.	2r	.
8G	.	8B-y	.	.	.	.	.	.	.
8F	.	8A	.	.	.	.	.	.	.
8EJ	.	8GJ	.	.	.	.	.	.	.
8FL	.	8AL	.	4r	.	.	.	1r	.
8G	.	8B-y	.	.	.	.	.	.	.
8A	.	8c	.	4f	Al	.	.	.	.
8GJ	.	8B-yJ	.	.	.	.	.	.	.
8FL	.	8AL	.	4f	fin,	.	.	.	.
8E	.	8G	.	.	.	.	.	.	.
8D	.	8F	.	4f	sgor-	.	.	.	.
8CJ	.	8EJ	.	.	.	.	.	.	.
=15	=15	=15	=15	=15	=15	=15	=15	=15	=15
1BB-y	.	2D	.	8fL	-gan-	4r	.	4r	.
.	.	.	.	8e	.	.	.	.	.
.	.	.	.	8d	.	4b-y	Al	4dd	Al
.	.	.	.	8eJ	.	.	.	.	.
.	.	4.d	.	8fL	.	4b-y	fin,	4dd	fin,
.	.	.	.	8e	.	.	.	.	.
.	.	.	.	8d	.	4b-y	sgor-	4dd	sgor-
.	.	8e	.	8cJ	.	.	.	.	.
1BB-y	-do	1f	.	2d	.	8b-yL	-gan-	8ddL	-gan-
.	.	.	.	.	.	8cc	.	8ee	.
.	.	.	.	.	.	8dd	.	8ff	.
.	.	.	.	.	.	8ccJ	.	8eeJ	.
.	.	.	.	2B-y	-do	8ddL	.	8ffL	.
.	.	.	.	.	.	8cc	.	8ee	.
.	.	.	.	.	.	8b-y	.	8dd	.
.	.	.	.	.	.	8aJ	.	8ccJ	.
=16	=16	=16	=16	=16	=16	=16	=16	=16	=16
0r	.	1B-y	-do	1r	.	8b-yL	.	8ddL	.
.	.	.	.	.	.	8cc	.	8ee	.
.	.	.	.	.	.	8dd	.	8ff	.
.	.	.	.	.	.	8ccJ	.	8eeJ	.
.	.	.	.	.	.	8b-yL	.	8ddL	.
.	.	.	.	.	.	8a	.	8cc	.
.	.	.	.	.	.	8g	.	8b-y	.
.	.	.	.	.	.	8fJ	.	8aJ	.
.	.	1r	.	2r	.	4e	.	4g	.
.	.	.	.	.	.	2f	.	4f	.
.	.	.	.	[2c	un	.	.	2g	.
.	.	.	.	.	.	4e	.	.	.
=17	=17	=17	=17	=17	=17	=17	=17	=17	=17
0r	.	1F	un	2c]	.	1f	-do	1a	-do
.	.	.	.	4f	la-	.	.	.	.
.	.	.	.	4e	-gri-	.	.	.	.
.	.	4B-y	la-	4d	-mo-	2f	un	1r	.
.	.	4A	-gri-	4c	-so	.	.	.	.
.	.	4G	-mo-	8dL	ri-	4b-y	la-	.	.
.	.	.	.	8e	.	.	.	.	.
.	.	4F	-so	8f	.	4a	-gri-	.	.
.	.	.	.	8dJ	.	.	.	.	.
=18	=18	=18	=18	=18	=18	=18	=18	=18	=18
1r	.	1c	ri-	4e	.	4g	-mo-	0r	.
.	.	.	.	2f	.	4f	-so	.	.
.	.	.	.	.	.	2g	ri-	.	.
.	.	.	.	4e	.	.	.	.	.
2r	.	4.F	-vo,	[1f	.	8aL	-vo,	.	.
.	.	.	.	.	.	8g	.	.	.
.	.	.	.	.	.	8a	.	.	.
.	.	8G	.	.	.	8b-yJ	.	.	.
[2F	In	2A	.	.	.	[2cc	.	.	.
=19	=19	=19	=19	=19	=19	=19	=19	=19	=19
4F]	.	2.A	In	2f]	.	2cc]	.	2r	.
4F	un	.	.	.	.	.	.	.	.
4F	lan-	.	.	1c	-vo,	2.a	In	2.f	In
8F	-gui-	4A	un	.	.	.	.	.	.
8F	-d'"hoi-	.	.	.	.	.	.	.	.
[1FF	-mè"	4A	lan-	.	.	.	.	.	.
.	.	8A	-gui-	.	.	4a	un	4f	un
.	.	8c	-d'"hoi-	.	.	.	.	.	.
.	.	2F	-mè"	4r	.	4a	lan-	4f	lan-
.	.	.	.	[4f	In	8a	-gui-	8f	-gui-
.	.	.	.	.	.	8cc	-d'"hoi-	8a	-d'"hoi-
=20	=20	=20	=20	=20	=20	=20	=20	=20	=20
1FF]	.	1r	.	4f]	.	1.c	-mè",	1.A	-mè",
.	.	.	.	4f	un	.	.	.	.
.	.	.	.	4f	lan-	.	.	.	.
.	.	.	.	8f	-gui-	.	.	.	.
.	.	.	.	8f	-d'"hoi-	.	.	.	.
4r	.	2r	.	2F	-mè"	.	.	.	.
4F	pro-	.	.	.	.	.	.	.	.
4E-X	-rup-	4c	pro-	4r	.	2r	.	2r	.
4D	-p'e	4B-y	-rup-	4d	pro-	.	.	.	.
=21	=21	=21	=21	=21	=21	=21	=21	=21	=21
1F	dis-	4A	-p'e	4c	-rup-	1r	.	1r	.
.	.	2B-y	dis-	4B-y	-p'e	.	.	.	.
.	.	.	.	2c	dis-	.	.	.	.
.	.	4A	.	.	.	.	.	.	.
[1BB-y	-se:	[1B-y	-se:	4.d	-se,	2r	.	2r	.
.	.	.	.	8e	.	.	.	.	.
.	.	.	.	[2f	.	[2dd	In	[2b-y	<In
=22	=22	=22	=22	=22	=22	=22	=22	=22	=22
1BB-]	.	1B-]	.	1f]	.	4dd]	.	4b-]	.
.	.	.	.	.	.	4dd	un	4b-y	un
.	.	.	.	.	.	4dd	lan-	4b-y	lan-
.	.	.	.	.	.	8dd	-gui-	8b-y	-gui-
.	.	.	.	.	.	8ff	-d'"hoi-	8dd	-d'"hoi-
1r	.	1r	.	2r	.	4f	-mè"	4d	-mè"
.	.	.	.	.	.	4b-y	pro-	4dd	pro-
.	.	.	.	4r	.	4b-y	-rup-	4dd	-rup-
.	.	.	.	[4f	<pro-	8aL	.	8ccL	.
.	.	.	.	.	.	8gJ	.	8b-yJ	.
=23	=23	=23	=23	=23	=23	=23	=23	=23	=23
0r	.	0r	.	4f]	.	4a	.	2cc	.
.	.	.	.	2e-X	-rup-	2g	.	.	.
.	.	.	.	.	.	.	.	2b-y	-p'e
.	.	.	.	4d	-p'e	2b-y	-p'e	.	.
.	.	.	.	1f	dis-	.	.	1cc	dis-
.	.	.	.	.	.	8aL	dis-	.	.
.	.	.	.	.	.	8gJ	.	.	.
.	.	.	.	.	.	2a	.	.	.
=24	=24	=24	=24	=24	=24	=24	=24	=24	=24
2r	.	2r	.	1B-y	-se:>	2b-y	-se:	2dd	-se:
1B-y	O-	1f	"O	.	.	1dd	"O	1b-y	"O
.	.	.	.	1r	.	.	.	.	.
4F	-sas-	4f	sas-	.	.	4cc	sas-	4a	sas-
4G	-s'a-	4d	-s'a-	.	.	4b-y	-s'a-	4g	-s'a-
=25	=25	=25	=25	=25	=25	=25	=25	=25	=25
2.D	-ma-	2.d	-ma-	0r	.	2.a	-ma-	2.f#X	-ma-
4G	-to	4d	-to	.	.	4b-y	-to	4g	-to
1F	tan-	1f	tan-	.	.	1cc	tan-	1a	tan-
=26	=26	=26	=26	=26	=26	=26	=26	=26	=26
1F	-to,	4.f	-to,	2r	.	2cc	-to,	1a	-to,
.	.	16eL	.	.	.	.	.	.	.
.	.	16dJ	.	.	.	.	.	.	.
.	.	2c	.	1f	O	1a	<O	.	.
1r	.	1r	.	.	.	.	.	2fnXi	<O
.	.	.	.	4c	sas-	4g	sas-	4e	sas-
.	.	.	.	4d	-s'a-	4f	-s'a-	4d	-s'a-
=27	=27	=27	=27	=27	=27	=27	=27	=27	=27
0r	.	0r	.	2.A	-ma-	2.e	-ma-	2.c#X	-ma-
.	.	.	.	4d	-to	4f	-to	4d	-to
.	.	.	.	1c	tan-	[1g	tan-	[1e	tan-
=28	=28	=28	=28	=28	=28	=28	=28	=28	=28
1C	a-	0r	.	2.c	-to,	2g]	.	1e]	.
.	.	.	.	.	.	1a	-to,> a-	.	.
.	.	.	.	4B-y	.	.	.	.	.
[1D	-ma-	.	.	2A	.	.	.	2f#X	-to,> a-
.	.	.	.	2d	a-	[2b-y	-ma-	[2g	-ma-
=29	=29	=29	=29	=29	=29	=29	=29	=29	=29
1D]	.	2r	.	2d	-ma-	4b-]	.	2g]	.
.	.	.	.	.	.	8aL	.	.	.
.	.	.	.	.	.	8gJ	.	.	.
.	.	1F	a-	2.d	-ro	2a	.	4fnXi	.
.	.	.	.	.	.	.	.	4e	.
1BB-y	-ro	.	.	.	.	1dd	-ro	2f	.
.	.	.	.	4e	.	.	.	.	.
.	.	[2B-y	-ma-	4f	.	.	.	2d	-ro
.	.	.	.	4d	.	.	.	.	.
=30	=30	=30	=30	=30	=30	=30	=30	=30	=30
0C	tan-	2B-]	.	2e	.	0cc	tan-	2g	tan-
.	.	2A	-ro	1f	tan-	.	.	2f	.
.	.	1G	tan-	.	.	.	.	1g	.
.	.	.	.	2e	.	.	.	.	.
=31	=31	=31	=31	=31	=31	=31	=31	=31	=31
1FF	-to,	1F	-to,	2.f	-to,	1.cc	-to,	2.a	-to,
.	.	.	.	4f	Che	.	.	4a	Che
1r	.	1r	.	8e	den-	.	.	8g	den-
.	.	.	.	8d	-tr'hai	.	.	8f	-tr'hai
.	.	.	.	8c	le	.	.	8e	le
.	.	.	.	8B-y	mie	.	.	8d	mie
.	.	.	.	2A	fiam-	4r	.	4c	fiam-
.	.	.	.	.	.	4a	Che	[4f	-m'e
=32	=32	=32	=32	=32	=32	=32	=32	=32	=32
0r	.	0r	.	2B-y	-m'e	8dd	den-	4f]	.
.	.	.	.	.	.	8cc	-tr'hai	.	.
.	.	.	.	.	.	8b-y	le	2g	fo-
.	.	.	.	.	.	8a	mie	.	.
.	.	.	.	2c	fo-	4g	fiam-	.	.
.	.	.	.	.	.	4e	-me	4a	-r'il
.	.	.	.	2d	-r'il	4r	.	4a	pian-
.	.	.	.	.	.	4f	e	8gL	.
.	.	.	.	.	.	.	.	8fJ	.
.	.	.	.	[2c	pian-	4g	fo-	4e	.
.	.	.	.	.	.	4a	-r'il	[4f	.
=33	=33	=33	=33	=33	=33	=33	=33	=33	=33
2r	.	1r	.	2c]	.	2g	pian-	4f]	.
.	.	.	.	.	.	.	.	4e	.
4r	.	.	.	8FL	-to,	4a	-to,	2f	-to,
.	.	.	.	8G	.	.	.	.	.
4F	Che	.	.	8A	.	4a	Che	.	.
.	.	.	.	8B-yJ	.	.	.	.	.
8E	den-	2r	.	1c	.	8g	den-	2r	.
8D	-tr'hai	.	.	.	.	8f	-tr'hai	.	.
8C	le	.	.	.	.	8e	le	.	.
8BB-y	mie	.	.	.	.	8d	mie	.	.
2AA	fiam-	4r	.	.	.	4c	fiam-	4r	.
.	.	4A	Che	.	.	[4f	-m'e	4cc	<Che
=34	=34	=34	=34	=34	=34	=34	=34	=34	=34
2BB-y	-m'e	8d	den-	1r	.	4f]	.	8b-y	den-
.	.	8c	-tr'hai	.	.	.	.	8a	-tr'hai
.	.	8B-y	le	.	.	2g	fo-	8g	le
.	.	8A	mie	.	.	.	.	8f	mie
2C	fo-	4G	fiam-	.	.	.	.	4e	fiam-
.	.	4E	-me	.	.	4a	-r'il	4cc	-m'e
2D	-r'il	1r	.	4r	.	4a	pian-	4a	fo-
.	.	.	.	4f	e	8gL	.	4b-y	-r'il
.	.	.	.	.	.	8fJ	.	.	.
[2C	pian-	.	.	4g	fo-	4e	.	[2cc	pian-
.	.	.	.	4a	-r'il	[4f	.	.	.
=35	=35	=35	=35	=35	=35	=35	=35	=35	=35
2C]	.	2r	.	4g	pian-	4f]	.	2cc]	.
.	.	.	.	4c	-to,	4e	.	.	.
2FF	-to,	2F	e	2r	.	4f	-to,	4a	-to,>
.	.	.	.	.	.	4cc	Che	4a	Che
1r	.	2G	fo-	2r	.	8b-y	den-	8g	den-
.	.	.	.	.	.	8a	-tr'hai	8f	-tr'hai
.	.	.	.	.	.	8g	le	8e	le
.	.	.	.	.	.	8f	mie	8d	mie
.	.	2A	-r'il	4r	.	4e	fiam-	4c	fiam-
.	.	.	.	4c	<e	4f	-m'e	4a	-m'e
=36	=36	=36	=36	=36	=36	=36	=36	=36	=36
1r	.	1G	pian-	4d	fo-	4g	fo-	4bnX	fo-
.	.	.	.	4e	-r'il	4g	-r'il	2cc	-r'il
.	.	.	.	2d	pian-	2.g	pian-	.	.
.	.	.	.	.	.	.	.	4bnX	pian-
4r	.	4c	-to,	[1c	-to,>	.	.	1cc	-to,
4F	Che	4A	Che	.	.	4a	-to,	.	.
8E	den-	8G	den-	.	.	2r	.	.	.
8D	-tr'hai	8F	-tr'hai	.	.	.	.	.	.
8C	le	8E	le	.	.	.	.	.	.
8BB-y	mie	8D	mie	.	.	.	.	.	.
=37	=37	=37	=37	=37	=37	=37	=37	=37	=37
2AA	fiam-	4C	fiam-	2c]	.	4r	.	4r	.
.	.	2F	-m'e	.	.	4a	<Che	4cc	Che
2BB-y	-m'e	.	.	2r	.	8dd	den-	8b-i	den-
.	.	.	.	.	.	8cc	-tr'hai	8a	-tr'hai
.	.	2G	fo-	.	.	8b-y	le	8g	le
.	.	.	.	.	.	8a	mie	8f	mie
2C	fo-	.	.	2c	Che	4g	fiam-	4e	fiam-
.	.	4A	-r'il	.	.	4e	-me	4c	-me
2D	-r'il	4A	pian-	8F	den-	4r	.	4r	.
.	.	.	.	8G	-tr'hai	.	.	.	.
.	.	4F	-to,	8A	le	4f	e	4d	e
.	.	.	.	8F	mie	.	.	.	.
=38	=38	=38	=38	=38	=38	=38	=38	=38	=38
0C	pian-	4r	.	4c	fiam-	2.g	fo-	4e	fo-
.	.	4G	e	4e	-m'e	.	.	4c	-r'il
.	.	4G	fo-	8e	fo-	.	.	1.cc	pian-
.	.	.	.	8c	-r'il	.	.	.	.
.	.	4F	-r'il	2f	pian-	4a	-r'il	.	.
.	.	1G	pian-	.	.	1g	pian-	.	.
.	.	.	.	8eL	.	.	.	.	.
.	.	.	.	8dJ	.	.	.	.	.
.	.	.	.	2e	.	.	.	.	.
=39	=39	=39	=39	=39	=39	=39	=39	=39	=39
0FFl	-to."	0Al	-to."	0fl	-to."	0fl	-to.">	0ccl	-to."
==	==	==	==	==	==	==	==	==	==
*-	*-	*-	*-	*-	*-	*-	*-	*-	*-
!!!system-decoration: [*]
!!!RDF**kern: i = editorial accidental
!!!RDF**kern: l = terminal long
!!!ENC: Emiliano Ricciardi
!!!END:
!!!EED: Ricciardi, Emiliano
!!!EEV: 2020/08/04
!!!YEC: Copyright 2020 Emiliano Ricciardi, All Rights Reserved
!!!ONB: Translated from MusicXML on 2020/08/04 and edited by Craig Stuart Sapp
!!@@BEGIN:	VERSEDATA
!!@CATALOGNUM:	Tsg12096
!!@LAST_MODIFIED: 2020/07/12
!!@TITLE:		Giunto a la tomba ove al suo spirto vivo
!!@CANTO:		XII
!!@OTTAVA:	96
!!@MANUSRC:	G-Al, G-Am, G-Au, G-Br<sub>1</sub>, G-Br<sub>2</sub>, G-Cv, G-Es<sub>1</sub>, G-Es<sub>2</sub>, G-Es<sub>3</sub>, G-F, G-Fr, G-Fr<sub>1</sub>, G-Fr<sub>2</sub>, G-Mc, G-Mc<sub>1</sub>, G-Mg, G-Mr, G-Mt, G-N, G-Ol
!!@PRINTSRC:	G-1580CM, G-1581B, G-1581CV, G-1581R, G-1581MR, G-1581P, G-1581V, G-1581V<sub>bis</sub>, G-1582C, G-1582M, G-1582MC, G-1582P, G-1582SC, G-1582SC<sub>bis</sub>, G-1583S, G-1584O, G-1584S, G-1585C, G-1585S, G-1588S, G-1589S, G-1590B, G-1590S, G-1592S, G-1593S, G-1594C, G-1595C, G-1597C, G-1598C, G-1599C, G-1600C, G-1600S, G-1601C, G-1601R, G-1602C, G-1604C, G-1604Cl, G-1604F, G-1604P, G-1606B, G-1606B<sub>bis</sub>, G-1606L, G-1607ZR, G-1608DP, G-1609GC, G-1610M, G-1611S, G-1611V, G-1612P, G-1613M, G-1613P, G-1613V, G-1615P, G-1616M, G-1617P, G-1619B, G-1619V, G-1620M, G-1620S, G-1621R, G-1624I, G-1624MT, G-1625C, G-1625S, G-1625SS, G-1626C, G-1626Co, G-1627M, G-1628T, G-1628Tu, G-1630L, G-1630T, G-1632FT, G-1639CF, G-1642M, G-1643I, G-1644P, G-1644S
!!@@BEGIN:	VERSES
!!@ABOUTIT:
!!@ABOUTEN:
!!@EDITOR:	Angelo Solerti
!!@EDITION_TITLE: Gerusalemme liberata. Poema eroico di Torquato Tasso. Edizione critica sui manoscritti e le prime stampe.
!!@EDITION_LOC:	Florence
!!@EDITION_PUB:	G. Barbera
!!@EDITION_DATE:  1895
!!@EDITION_VOL:
!!@EDITION_PAGE:
!!@TRANSLATOR:	Emiliano Ricciardi and Amyrose McCue Gill
!!@VERSE:
!!	Giunto a la tomba ove al suo spirto vivo
!!	Dolorosa prigione il Ciel prescrisse;
!!	Pallido, freddo, muto, e quasi privo
!!	Di movimento, al marmo gli occhi affisse.
!!	Alfin sgorgando un lagrimoso rivo,
!!	In un languido oimè proruppe, e disse:
!!	"O sasso amato ed onorato tanto
!!	Che dentro hai le mie fiamme, e fuori il pianto:"
!!@MVERSE_DATE: 20230824
!!@MVERSE:
!!	Giun||to_a la tom||ba_o||ve_al suo spir||to vi||vo		=a
!!	Do|lo|ro||sa pri|gio||ne_il Ciel pre|scris||se;			=b
!!	Pal||li|do, fred||do, mu||to,_e qua||si pri||vo			=a*
!!	Di mo|vi|men||to,_al mar||mo gli_oc||chi_af|fis||se.		=b
!!	Al|fin|| sgor|gan||do_un la|gri|mo||so ri||vo,			=a
!!	In un lan||gui|do_oi|mè|| pro|rup||pe,_e dis||se:		=b
!!	"O sas||so_a|ma||to_ed o|no|ra||to tan||to			=c*
!!	Che den||tro_hai le mie fiam||me,_e fuo||ri_il pian||to:"	=c
!!@TVERSE:
!![Having] reached the tomb where for her living spirit
!!	A sorrowful prison Heaven mandated;
!!	Pale, cold, mute, and almost lacking
!!	In movement, upon marble he fixed his eyes.
!!	At last disgorging a tearful river,
!!	With a weak “Oh dear” burst forth, and he said:
!!	"O stone, beloved and so honored
!!	That within you have my flames, and without my tears:"
!!@@END:		VERSES
!!@OTHER_CRIT_ED:  Torquato Tasso, <i>Gerusalemme liberata</i>, ed. Lanfranco Caretti, 2 vols. (Bari: Laterza, 1967).
!!@ATTRIBUTION_ABOUT:
!!@DATING:	mid-1560s through 1570s
!!@DEDICATEE:	Duke Alfonso II d'Este
!!@COMMENTARY:
!!@@END:		VERSEDATA
!!@@BEGIN: SETTING
!!@CATALOGNUM:	Tsg12096e
!!@CANTO:		XII
!!@OTTAVA:	96
!!@TITLE:	Giunto a la tomba ove al suo spirto vivo
!!@SETTINGTITLE: Giunt'a la tomb'ov'al suo spirto vivo
!!@COMPOSER:	Cifra, Antonio
!!@PARTS:		1 of 4
!!@PRINCEPSTITLE:	Il primo libro de madrigali a cinque voci
!!@PRINCEPSLOC:	Rome
!!@NORMLOC:	Rome
!!@NORMPUB:	Luigi Zanetti
!!@NORMPUBSHORT:	Zanetti
!!@PRINCEPSPUB:	Luigi Zanetti
!!@PRINCEPSYEAR:	1605
!!@PRINCEPSRISM:	C 2212
!!@OVOICES:	5
!!@EXTANTVOICES:	5
!!@OMENSURATION:	C
!!@OCLEFS:	C1,C1,C3,C4,F4
!!@OTIME:		
!!@OKEYSIG:	b-
!!@FINAL:		(F)F
!!@TIMPEDITOR:	Ricciardi, Emiliano
!!@REPRINTS:	
!!@@END: SETTING
